X:3150
T:Cock Up Thy Beaver, Jemme. HA21
M:6/4
L:1/4
Q:120
S:Henry Atkinson MS,Hartburn,Northumberland,1694/5 transcribed John Stokoe 1883
N:Of course, a Beaver may have been a sort of hat
Z:vmp.Cherri Graebe
K:F Major
d|c2FA>GF|G>AGB2D|c2FA2G|FfBABc|dcdfcA|!
G>AGB2f|c2BA2G|FfcA2F:||:FfcA/B/cA|GgdB2G|FfcA/B/cA|!
FfBABc|B/A/B/c/d/e/fFA|G>AGB2f|c2BA2G|FfcA2F:||
% Output from ABC2Win  Version 2.1 k pre2 on 03/06/2000


